icons/svg/survey-light.svg

<svg width="32" height="32" viewBox="0 0 32 32" fill="none" xmlns="http://www.w3.org/2000/svg">
<path d="M25.5011 2.8123L24.7216 5.06796C24.6637 5.22486 24.5606 5.36083 24.4256 5.45901C24.2905 5.55729 24.1294 5.61336 23.9626 5.62023L23.9523 5.62066H21.7625L23.4491 7.06958C23.5833 7.17838 23.6832 7.32376 23.7367 7.48834C23.7914 7.65695 23.7949 7.83804 23.7466 8.00861L23.7441 8.01729L23.0161 10.2735L25.0302 8.89993C25.1693 8.80701 25.3329 8.75749 25.5001 8.75749C25.6673 8.75749 25.8309 8.80701 25.9701 8.89993L25.9742 8.9027L27.9844 10.2737L27.247 7.98468L27.2445 7.97577C27.1991 7.81481 27.2025 7.64397 27.2542 7.48491C27.3046 7.32971 27.3988 7.19277 27.525 7.09015L29.2374 5.62066H27.0695L27.06 5.62029C26.8929 5.61392 26.7312 5.55829 26.5954 5.45981C26.4598 5.3615 26.3564 5.22515 26.2984 5.06802L26.296 5.0614L25.5011 2.8123ZM25.0154 1.65201C25.1576 1.55285 25.3266 1.5 25.4994 1.5C25.6722 1.5 25.8412 1.55285 25.9835 1.65201C26.1255 1.75101 26.2337 1.8912 26.2936 2.05373L26.2958 2.05983L27.2008 4.62066H29.6782L29.6883 4.62107C29.861 4.6281 30.0274 4.6878 30.1651 4.7922C30.303 4.89671 30.4054 5.04093 30.4587 5.20518C30.5122 5.36963 30.5139 5.54642 30.4637 5.71186C30.4148 5.8732 30.3187 6.01626 30.188 6.12263L28.2371 7.7968L29.0814 10.4177L29.0841 10.4274C29.1303 10.5938 29.1246 10.7703 29.0676 10.9333C29.0105 11.0963 28.905 11.2379 28.7652 11.3392C28.6252 11.4405 28.4578 11.4965 28.2854 11.4998C28.1131 11.5032 27.9436 11.454 27.7997 11.3581L27.795 11.3551L25.5001 9.78982L23.2006 11.3582C23.0567 11.454 22.8871 11.5032 22.7148 11.4998C22.5425 11.4965 22.375 11.4405 22.235 11.3392C22.0952 11.2379 21.9897 11.0963 21.9327 10.9333C21.8756 10.7703 21.8699 10.5937 21.9162 10.4274L21.9189 10.4175L22.7637 7.79911L20.8121 6.12252C20.6814 6.01616 20.5854 5.87315 20.5365 5.71186C20.4863 5.54642 20.4881 5.36962 20.5415 5.20518C20.5948 5.04094 20.6972 4.89671 20.8351 4.7922C20.9728 4.68781 21.1392 4.6281 21.3119 4.62107L21.3221 4.62066H23.8182L24.7052 2.05369C24.765 1.89116 24.8734 1.75101 25.0154 1.65201ZM7.00022 6C5.0674 6 3.50022 7.56791 3.5002 9.50109L3.50011 19C3.50011 21.0175 4.40774 22.1805 5.5141 22.6657C5.75453 22.7712 5.87245 23.0446 5.78411 23.2919C5.59496 23.8212 5.21556 24.3503 4.77115 24.8031C4.41819 25.1628 4.00575 25.4934 3.57523 25.7532C3.64563 25.7766 3.72507 25.7992 3.81325 25.8199C4.52796 25.9873 5.66514 25.9955 6.81442 25.5358C7.64914 25.2019 8.37577 24.7971 9.09116 24.3986C9.36173 24.2479 9.63069 24.0981 9.90328 23.9533C10.8701 23.4399 11.8705 23 13.0001 23H25.0028C26.9353 23 28.5002 21.4334 28.5002 19.5V13C28.5002 12.7239 28.7241 12.5 29.0002 12.5C29.2764 12.5 29.5002 12.7239 29.5002 13V19.5C29.5002 21.9849 27.4885 24 25.0028 24H13.0001C12.1298 24 11.3136 24.3367 10.3723 24.8365C10.1334 24.9634 9.88503 25.1018 9.62671 25.2457C8.89555 25.653 8.08485 26.1046 7.1858 26.4642C5.835 27.0045 4.48768 27.0049 3.58515 26.7935C3.1584 26.6935 2.73549 26.5243 2.49473 26.2594C2.36377 26.1154 2.22511 25.8671 2.30998 25.566C2.38679 25.2934 2.60601 25.138 2.77651 25.0528C3.22134 24.8304 3.67727 24.4901 4.05739 24.1028C4.30477 23.8506 4.50784 23.5911 4.65416 23.3455C3.3777 22.5831 2.50011 21.1124 2.50011 19L2.5002 9.50108C2.50022 7.01598 4.51476 5 7.00022 5H19.0001C19.2763 5 19.5001 5.22386 19.5001 5.5C19.5001 5.77614 19.2763 6 19.0001 6H7.00022Z" fill="black"/>
</svg>

<svg xmlns="http://www.w3.org/2000/svg" width="32" height="32" viewBox="0 0 32 32"><path d="m25.501 2.812-.78 2.256a.845.845 0 0 1-.758.552h-2.2l1.686 1.45a.9.9 0 0 1 .298.939l-.003.008-.728 2.257L25.03 8.9a.85.85 0 0 1 .94 0l.004.003 2.01 1.37-.737-2.288-.003-.01a.85.85 0 0 1 .281-.885l1.712-1.47H27.06a.85.85 0 0 1-.762-.552l-.002-.007zm-.486-1.16a.846.846 0 0 1 1.279.402l.002.006.905 2.56h2.477l.01.001a.846.846 0 0 1 .5 1.502l-1.95 1.674.843 2.62.003.01a.846.846 0 0 1-1.284.931l-.005-.003L25.5 9.79l-2.3 1.568a.847.847 0 0 1-1.284-.93l.003-.01.845-2.619-1.952-1.676a.846.846 0 0 1 .5-1.502h2.506l.887-2.567a.85.85 0 0 1 .31-.402M7 6a3.5 3.5 0 0 0-3.5 3.501V19c0 2.017.908 3.18 2.014 3.666a.5.5 0 0 1 .27.626c-.189.53-.568 1.058-1.013 1.511-.353.36-.765.69-1.196.95q.105.036.238.067c.715.167 1.852.175 3.001-.284.835-.334 1.562-.739 2.277-1.137q.405-.227.812-.446C10.87 23.44 11.87 23 13 23h12.003a3.5 3.5 0 0 0 3.497-3.5V13a.5.5 0 0 1 1 0v6.5c0 2.485-2.012 4.5-4.497 4.5H13c-.87 0-1.686.337-2.628.837-.239.126-.487.265-.745.409-.731.407-1.542.859-2.441 1.218-1.351.54-2.698.54-3.6.33-.428-.1-.85-.27-1.091-.535-.131-.144-.27-.392-.185-.693.077-.273.296-.428.467-.513.444-.223.9-.563 1.28-.95.248-.252.45-.512.597-.758C3.378 22.584 2.5 21.113 2.5 19V9.501A4.5 4.5 0 0 1 7 5h12a.5.5 0 1 1 0 1z"/></svg>
